icons/new/svg/line.svg

<svg xmlns="http://www.w3.org/2000/svg" viewBox="0 0 24 24" baseProfile="tiny"><path fill="none" d="M0 0h24v24H0z"/><path d="M289.993 99.53l-.004-15.88 5.548 8.477 6.683-9.305 5.422 10.844-6.382 3.842" fill="none" stroke="url(#_Linear1)" stroke-width="2.66" transform="matrix(1.01925 0 0 1.014 -291.564 -79.982)"/><path d="M289.993 100V83l6.156 9 7.46-10 6 12L303 98" fill="none" stroke="#000" stroke-width="2.05" transform="matrix(.91732 0 0 .9126 -262.018 -70.754)"/><defs><linearGradient id="_Linear1" x2="1" gradientUnits="userSpaceOnUse" gradientTransform="matrix(-10.7922 -23.6687 23.5467 -10.8482 301.755 99.588)"><stop offset="0" stop-color="#00a2ff"/><stop offset="1" stop-color="#0060a1"/></linearGradient></defs></svg>

<?xml version="1.0"?>
<!-- Converted with SVG Converter - Version 0.9.6 (Compiled Fri Dec  1 22:15:06 2017) - Copyright (C) 2011 Nokia -->
<svg xmlns="http://www.w3.org/2000/svg" viewBox="0 0 24 24" width="100%" xml:space="preserve" version="1.1" xmlns:xlink="http://www.w3.org/1999/xlink" height="100%" baseProfile="tiny">
 <g transform="matrix(1,0,0,1,-324,-121)">
  <g id="Line-tool" transform="matrix(1,0,0,1,86,68)">
   <rect style="fill:none;" width="24" y="53" x="238" height="24"/>
   <g transform="matrix(1.01925,0,0,1.014,-53.5642,-26.9817)">
    <path style="fill:none;stroke:url(#_Linear1);stroke-width:2.66px;" d="M289.993,99.53L289.989,83.65L295.537,92.127L302.22,82.822L307.642,93.666L301.26,97.508"/>
   </g>
   <g transform="matrix(0.917325,0,0,0.912598,-24.0183,-17.7543)">
    <path style="fill:none;stroke:black;stroke-width:2.05px;" d="M289.993,100L289.993,83L296.149,92L303.609,82L309.609,94L303,98"/>
   </g>
  </g>
 </g>
 <defs>
  <linearGradient x1="0" id="_Linear1" x2="1" gradientUnits="userSpaceOnUse" y2="0" y1="0" gradientTransform="matrix(-10.7922,-23.6687,23.5467,-10.8482,301.755,99.5877)">
   <stop style="stop-color:rgb(0,162,255);stop-opacity:1" offset="0.0"/>
   <stop style="stop-color:rgb(0,96,161);stop-opacity:1" offset="1.0"/>
  </linearGradient>
 </defs>
</svg>
